src/assets/svg/typescript.svg

<svg width="60" height="60" viewBox="0 0 60 60" fill="none" xmlns="http://www.w3.org/2000/svg">
<g clip-path="url(#clip0_703_1700)">
<path d="M54.1406 0H5.85938C2.62333 0 0 2.62333 0 5.85938V54.1406C0 57.3767 2.62333 60 5.85938 60H54.1406C57.3767 60 60 57.3767 60 54.1406V5.85938C60 2.62333 57.3767 0 54.1406 0Z" fill="#3178C6"/>
<path d="M54.1406 0H5.85938C2.62333 0 0 2.62333 0 5.85938V54.1406C0 57.3767 2.62333 60 5.85938 60H54.1406C57.3767 60 60 57.3767 60 54.1406V5.85938C60 2.62333 57.3767 0 54.1406 0Z" fill="#3178C6"/>
<path fill-rule="evenodd" clip-rule="evenodd" d="M37.1413 47.745V53.6115C38.095 54.1004 39.2229 54.467 40.5251 54.7114C41.8273 54.9559 43.1996 55.0781 44.6425 55.0781C46.0486 55.0781 47.3843 54.9437 48.6498 54.6748C49.9153 54.4059 51.025 53.9629 51.9786 53.3456C52.9323 52.7285 53.6873 51.9218 54.2436 50.9257C54.7999 49.9296 55.0781 48.6983 55.0781 47.2317C55.0781 46.1684 54.9192 45.2365 54.6013 44.436C54.2834 43.6355 53.8249 42.9236 53.2257 42.3002C52.6267 41.6769 51.9083 41.1177 51.0708 40.6227C50.2332 40.1277 49.2887 39.6602 48.2372 39.2203C47.4669 38.9025 46.7761 38.5939 46.1647 38.2945C45.5534 37.995 45.0337 37.6895 44.6058 37.3779C44.1778 37.0662 43.8477 36.7362 43.6154 36.3879C43.3832 36.0395 43.2669 35.6454 43.2669 35.2054C43.2669 34.8021 43.3709 34.4385 43.5788 34.1146C43.7866 33.7907 44.0801 33.5127 44.4591 33.2804C44.8382 33.0483 45.3027 32.8679 45.8529 32.7396C46.4032 32.6113 47.0145 32.5472 47.687 32.5472C48.176 32.5472 48.6926 32.5839 49.2367 32.6571C49.7808 32.7305 50.3279 32.8436 50.8782 32.9962C51.4284 33.1491 51.9633 33.3416 52.483 33.5738C53.0026 33.806 53.4825 34.0748 53.9227 34.3805V28.8989C53.0302 28.5567 52.055 28.3031 50.9974 28.1381C49.9398 27.9731 48.7262 27.8906 47.3569 27.8906C45.9629 27.8906 44.6425 28.0404 43.3954 28.3398C42.1482 28.6392 41.0509 29.1067 40.1032 29.7422C39.1556 30.3778 38.4068 31.1875 37.8566 32.1714C37.3064 33.1552 37.0312 34.3315 37.0312 35.7004C37.0312 37.4481 37.5356 38.9392 38.5444 40.1736C39.553 41.408 41.0844 42.4529 43.1386 43.3085C43.9455 43.6385 44.6975 43.9623 45.3945 44.2801C46.0914 44.5979 46.6936 44.9279 47.2009 45.2701C47.7083 45.6123 48.1087 45.9851 48.4023 46.3884C48.6957 46.7917 48.8425 47.25 48.8425 47.7634C48.8425 48.1423 48.7507 48.4936 48.5673 48.8175C48.3839 49.1414 48.1057 49.4224 47.7328 49.6608C47.3599 49.8991 46.8953 50.0855 46.339 50.2199C45.7826 50.3544 45.1316 50.4216 44.3857 50.4216C43.1141 50.4216 41.8548 50.1986 40.6076 49.7524C39.3605 49.3064 38.205 48.6373 37.1413 47.745ZM27.2789 33.2909H34.8047V28.4766H13.8281V33.2909H21.3171V54.7266H27.2789V33.2909Z" fill="white"/>
</g>
<defs>
<clipPath id="clip0_703_1700">
<rect width="60" height="60" rx="14" fill="white"/>
</clipPath>
</defs>
</svg>

<svg width="60" height="60" viewBox="0 0 60 60" fill="none" xmlns="http://www.w3.org/2000/svg"><g clip-path="url(#a)"><path d="M54.14 0H5.86A5.86 5.86 0 0 0 0 5.86v48.28A5.86 5.86 0 0 0 5.86 60h48.28A5.86 5.86 0 0 0 60 54.14V5.86A5.86 5.86 0 0 0 54.14 0Z" fill="#3178C6"/><path d="M54.14 0H5.86A5.86 5.86 0 0 0 0 5.86v48.28A5.86 5.86 0 0 0 5.86 60h48.28A5.86 5.86 0 0 0 60 54.14V5.86A5.86 5.86 0 0 0 54.14 0Z" fill="#3178C6"/><path fill-rule="evenodd" clip-rule="evenodd" d="M37.141 47.745v5.867c.954.488 2.082.855 3.384 1.1 1.302.244 2.675.366 4.117.366 1.407 0 2.742-.134 4.008-.403 1.265-.27 2.375-.712 3.329-1.33a6.772 6.772 0 0 0 2.265-2.42c.556-.995.834-2.227.834-3.693 0-1.064-.159-1.995-.477-2.796a6.535 6.535 0 0 0-1.375-2.136 10.071 10.071 0 0 0-2.155-1.677 23.088 23.088 0 0 0-2.834-1.403 35.691 35.691 0 0 1-2.072-.925c-.612-.3-1.131-.605-1.56-.917-.427-.312-.757-.642-.99-.99a2.084 2.084 0 0 1-.348-1.183c0-.403.104-.767.312-1.09.208-.324.501-.602.88-.835.38-.232.844-.412 1.394-.54a8.088 8.088 0 0 1 1.834-.193 12.286 12.286 0 0 1 3.191.449c.55.153 1.085.346 1.605.578.52.232 1 .5 1.44.806V28.9a14.323 14.323 0 0 0-2.926-.76c-1.057-.166-2.27-.248-3.64-.248-1.394 0-2.715.15-3.962.449-1.247.3-2.344.767-3.292 1.402a7.008 7.008 0 0 0-2.246 2.43c-.55.983-.826 2.16-.826 3.528 0 1.748.505 3.24 1.513 4.474 1.009 1.234 2.54 2.279 4.595 3.135.806.33 1.558.653 2.255.971.697.318 1.3.648 1.807.99.507.342.908.715 1.201 1.118.294.404.44.862.44 1.375 0 .38-.091.73-.275 1.055-.183.323-.461.604-.834.843-.373.238-.838.425-1.394.559-.556.134-1.207.202-1.953.202-1.272 0-2.531-.223-3.778-.67a11.274 11.274 0 0 1-3.467-2.007ZM27.28 33.291h7.526v-4.814H13.828v4.814h7.49v21.436h5.96V33.29Z" fill="#fff"/></g><defs><clipPath id="a"><rect width="60" height="60" rx="14" fill="#fff"/></clipPath></defs></svg>
